src/svgs/ethereum.svg

<?xml version="1.0" encoding="UTF-8" standalone="no"?>
<svg
   id="Layer_1"
   viewBox="0 0 32 32"
   version="1.1"
   xmlns="http://www.w3.org/2000/svg"
   xmlns:svg="http://www.w3.org/2000/svg">
  <defs
     id="defs1031" />
  <style
     id="style1022">.st1{fill:#231f20}</style>
  <path
     id="path1024"
     class="st1"
     d="M 16.099609 6.5 C 15.999609 6.7 15.900781 6.8 15.800781 7 C 15.200781 8 14.599609 8.9003906 14.099609 9.9003906 C 13.599609 10.800391 13 11.699609 12.5 12.599609 C 11.9 13.599609 11.299219 14.6 10.699219 15.5 L 10.699219 15.599609 C 11.099219 16.099609 11.800391 16.400781 12.400391 16.800781 L 16 18.900391 L 16.099609 18.900391 C 17.899609 17.800391 19.699609 16.699219 21.599609 15.699219 L 21.599609 15.599609 C 21.099609 14.699609 20.6 13.9 20 13 C 18.7 10.8 17.399609 8.7 16.099609 6.5 z M 10.5 17.800781 C 10.8 18.200781 11.000781 18.500391 11.300781 18.900391 C 12.000781 19.900391 12.7 20.900391 13.5 21.900391 C 14.3 23.100391 15.2 24.200391 16 25.400391 C 16 25.400391 15.999609 25.5 16.099609 25.5 C 17.299609 23.8 18.600781 22.000781 19.800781 20.300781 C 20.400781 19.500781 20.999609 18.600781 21.599609 17.800781 C 19.899609 18.700781 18.299219 19.599609 16.699219 20.599609 C 16.499219 20.699609 16.2 20.9 16 21 C 15.2 20.5 14.399609 20.099609 13.599609 19.599609 C 12.699609 19.099609 11.800391 18.5 10.900391 18 C 10.800391 17.9 10.7 17.900781 10.5 17.800781 z " />
</svg>

<svg id="Layer_1" xmlns="http://www.w3.org/2000/svg" viewBox="0 0 32 32"><style>.st1{fill:#231f20}</style><path class="st1" d="M12.4 16.8l3.6 2.1h.1c1.8-1.1 3.6-2.2 5.5-3.2v-.1c-.5-.9-1-1.7-1.6-2.6-1.3-2.2-2.6-4.3-3.9-6.5-.1.2-.2.3-.3.5-.6 1-1.2 1.9-1.7 2.9-.5.9-1.1 1.8-1.6 2.7-.6 1-1.2 2-1.8 2.9v.1c.4.5 1.1.8 1.7 1.2z"/><path class="st1" d="M16.7 20.6c-.2.1-.5.3-.7.4-.8-.5-1.6-.9-2.4-1.4-.9-.5-1.8-1.1-2.7-1.6-.1-.1-.2-.1-.4-.2.3.4.5.7.8 1.1.7 1 1.4 2 2.2 3 .8 1.2 1.7 2.3 2.5 3.5 0 0 0 .1.1.1 1.2-1.7 2.5-3.5 3.7-5.2.6-.8 1.2-1.7 1.8-2.5-1.7.9-3.3 1.8-4.9 2.8z"/></svg>
